X: 3284
T:Father Fielding's Favorite
R:jig
S:Trad, arr. Paddy O'Brien
M:6/8
L:1/8
K:G
E/D/|~G2A BcA|BGF GBc|dBG FAG|FDD DEF|!
~G2A BcA|BAG fed|cAG FGA|BGF G2:|!
B/d/|gfg afd|cBc dBG|~g2b afd|cBc def|!
geg fdf|ece gfe|ded cBA|BGE G2:|!
